packages/ui-icons/src/Basic/32/Zashchita_32.svg

<?xml version="1.0" encoding="utf-8"?>
<svg version="1.1" id="Слой_1" xmlns="http://www.w3.org/2000/svg" xmlns:xlink="http://www.w3.org/1999/xlink" x="0px" y="0px"
	 viewBox="0 0 40 40" style="enable-background:new 0 0 40 40;" xml:space="preserve">
<path id="Shape" d="M15.9766,23v-2.0004h-1.977v-2h1.977v-8h6.023c2.76129,0,5,2.23872,5,5s-2.23871,5-5,5h-4.023V23H24v2h-6.0234
	v2.9766h-2V25H14v-2H15.9766z M16.65689,36l-0.27083-0.21065C10.46366,31.18304,7,24.10083,7,16.598V7.76689l0.44909-0.29645
	C10.69173,5.32991,15.62143,4,20,4c4.37794,0,9.30851,1.33006,12.55091,3.47044L33,7.76689V16.598
	c0,7.50283-3.46366,14.58504-9.38606,19.19135L23.34311,36H16.65689z M9,16.598C9,23.37029,12.07491,29.76912,17.34731,34h5.30537
	C27.92509,29.76912,31,23.37029,31,16.598V8.85645C28.09573,7.10656,23.80257,6,20,6c-3.80319,0-8.09559,1.10642-11,2.85644V16.598z
	 M17.9766,18.9996h4.023c1.65672,0,3-1.34328,3-3s-1.34328-3-3-3h-4.023V18.9996z"/>
</svg>

<svg xmlns="http://www.w3.org/2000/svg" viewBox="0 0 40 40" style="enable-background:new 0 0 40 40" xml:space="preserve"><path d="M15.977 23v-2H14v-2h1.977v-8H22a5 5 0 0 1 0 10h-4.023v2H24v2h-6.023v2.977h-2V25H14v-2h1.977zm.68 13-.27-.21A24.312 24.312 0 0 1 7 16.597V7.767l.45-.297C10.691 5.33 15.62 4 20 4c4.378 0 9.309 1.33 12.55 3.47l.45.297v8.831a24.312 24.312 0 0 1-9.386 19.191l-.27.211h-6.687zM9 16.598A22.312 22.312 0 0 0 17.347 34h5.306A22.312 22.312 0 0 0 31 16.598V8.856C28.096 7.106 23.803 6 20 6S11.904 7.106 9 8.856v7.742zM17.977 19H22a3 3 0 0 0 0-6h-4.023v6z"/></svg>
